X: 38786
T: Stumpie
R: strathspey
M: 4/4
K: Gmajor
|:B>d g2 g/f/e/d/ g2|B>d g2 a*AA>c|B>d g2 g/f/e/d/ g2|B>dA>c B*G G2:|
|:B>dd>B c>ee>c|B>dd>B c*AA>c|1 B>dd>B c>ee>c|B>dA>c B*G G2:|
2 B>dd>B c>ee>f|(3gfe d>c B*G G2||

